X:12604
T:The Scartaglen
R:Polka
B:Tuneworks Tunebook (https://www.tuneworks.co.uk/)
G:Tuneworks
Z:Jon Warbrick <jon.warbrick@googlemail.com>
M:2/4
L:1/8
K:G
|: "G"G2 G>A | Bd de/f/ | "C"gB B/A/G/A/ | "D"BA AB/A/ | "G"G2 G>A | Bd de/f/ | "C"gB "D"AB/A/ | "G"G2 G2 :|
|: "G"Bd g>g | "C"fe e/f/g/e/ | "G"dB B/A/G/A/ | "D"BA A2 | "G"Bd g>g | "C"fe e/f/g/e/ | "G"dB "D"AB/A/ | "G"G2 G2 :|
|: "G"g2 ag/a/ | b2 b>a | "G"gg ag/a/ | b2 b>a | "C"ge e/f/g/e/ | "G"dB gB | dB "D"AB/A/ | "G"G2 G2 :|
